assets/symbols/mulberry/save.svg

<svg height="850.394" viewBox="0 0 850.394 850.394" width="850.394" xmlns="http://www.w3.org/2000/svg"><path d="m746.98 70.86v700.03h-546.96l-94.13-145.54v-554.49zm-104.04 328.96v-325.95h-428.2v325.95zm-1.2 368.06v-196.06h-427v196.06z" fill="#2c308c"/><path d="m214.74 73.87h428.2v325.95h-428.2zm427 497.95v196.06h-427v-196.06zm-41.5 159.37v-117.87h-45.71v117.87z" fill="#c8c8c8"/><path d="m554.53 613.32h45.71v117.87h-45.71z" fill="#7a7878"/><g fill="none"><g stroke="#231f20" stroke-width="21"><path d="m105.89 625.35v-554.49h641.09v700.03h-546.96z"/><path d="m214.74 73.87h428.2v325.95h-428.2zm0 497.95h427v196.06h-427z"/><path d="m554.53 613.32h45.71v117.87h-45.71z"/></g><path d="m0 0h850.394v850.394h-850.394z"/></g></svg>

<svg xmlns="http://www.w3.org/2000/svg" width="850.394" height="850.394" viewBox="0 0 850.394 850.394" overflow="visible"><path d="M746.98 70.86v700.03H200.02l-94.13-145.54V70.86h641.09zM642.94 399.82V73.87h-428.2v325.95h428.2zm-1.2 368.06V571.82h-427v196.06h427z" fill="#2c308c"/><path fill="#c8c8c8" d="M214.74 73.87h428.2v325.95h-428.2zM641.74 571.82v196.06h-427V571.82h427zm-41.5 159.37V613.32h-45.71v117.87h45.71z"/><path fill="#7a7878" d="M554.53 613.32h45.71v117.87h-45.71z"/><g fill="none" stroke="#231f20" stroke-width="21"><path d="M105.89 625.35V70.86h641.09v700.03H200.02z"/><path d="M214.74 73.87h428.2v325.95h-428.2zM214.74 571.82h427v196.06h-427z"/><path d="M554.53 613.32h45.71v117.87h-45.71z"/></g><path fill="none" d="M0 0h850.394v850.394H0z"/></svg>
